icons/man.svg

<svg width="48" height="48" viewBox="0 0 48 48" fill="none" xmlns="http://www.w3.org/2000/svg">
<path fill-rule="evenodd" clip-rule="evenodd" d="M28.5 8.5C28.5 10.9853 26.4853 13 24 13C21.5147 13 19.5 10.9853 19.5 8.5C19.5 6.01472 21.5147 4 24 4C26.4853 4 28.5 6.01472 28.5 8.5ZM26.5 8.5C26.5 9.88071 25.3807 11 24 11C22.6193 11 21.5 9.88071 21.5 8.5C21.5 7.11929 22.6193 6 24 6C25.3807 6 26.5 7.11929 26.5 8.5Z" fill="black"/>
<path fill-rule="evenodd" clip-rule="evenodd" d="M19.9772 15C18.8169 15 17.6644 15.2625 16.6248 15.8916C15.5882 16.5189 14.842 17.4029 14.322 18.3698C13.3372 20.2008 13.062 22.5156 13.062 24.8261V24.9142C13.062 24.9435 13.0633 24.9729 13.0659 25.0021L13.0736 25.0899C13.0802 25.1648 13.0851 25.4168 13.079 26.0102C13.0777 26.1389 13.076 26.2775 13.0742 26.4259L13.0741 26.4278C13.0686 26.8802 13.062 27.4183 13.062 28C13.062 29.6569 14.4052 31 16.062 31C16.3897 31 16.7049 30.9475 16.9999 30.8505V31L17 31.0111L17 41C17 42.604 18.2617 43.9242 19.8641 43.9969C21.4664 44.0696 22.8425 42.869 22.9877 41.2716L23.8306 32H24.1695L25.0123 41.2716C25.1576 42.869 26.5336 44.0696 28.136 43.9969C29.7383 43.9242 31 42.604 31 41V30.8294C31.3127 30.9399 31.6492 31 31.9998 31C33.6566 31 34.9998 29.6569 34.9998 28C34.9998 27.4193 34.9932 26.882 34.9877 26.4301L34.9876 26.4259C34.9858 26.2775 34.9841 26.1389 34.9828 26.0102C34.9766 25.4168 34.9815 25.1648 34.9881 25.0899L34.9959 25.0021C34.9985 24.9729 34.9998 24.9435 34.9998 24.9142V24.8261C34.9997 22.5156 34.7245 20.2008 33.7398 18.3698C33.2198 17.4029 32.4736 16.5189 31.437 15.8916C30.3974 15.2625 29.2449 15 28.0845 15H19.9772ZM16.062 29C16.4908 29 16.8586 28.7293 17 28.3483V21.5H19V30.9974L19 31L19 41C19 41.5347 19.4206 41.9747 19.9547 41.999C20.4888 42.0232 20.9475 41.623 20.9959 41.0905L21.9215 30.9095C21.9683 30.3944 22.4002 30 22.9174 30H25.0827C25.5999 30 26.0317 30.3944 26.0786 30.9095L27.0041 41.0905C27.0525 41.623 27.5112 42.0232 28.0453 41.999C28.5794 41.9747 29 41.5347 29 41L29 29.9969L28.9999 29.9854L28.9999 29.9807V28.0263L29 28.014V21.5H31V28.0225C31.0118 28.5643 31.455 29 31.9998 29C32.552 29 32.9998 28.5523 32.9998 28C32.9998 27.4314 32.9933 26.9041 32.9878 26.4505L32.9876 26.4383C32.9874 26.4203 32.9872 26.4025 32.987 26.3848C32.9854 26.2608 32.984 26.1423 32.9829 26.0309C32.9771 25.4742 32.9787 25.1092 32.9959 24.914L32.9998 24.8701V24.8261C32.9997 22.6145 32.7248 20.7049 31.9784 19.3171C31.5959 18.6059 31.0794 18.0129 30.4015 17.6027C29.7226 17.1918 28.9408 17 28.0845 17H19.9772C19.1209 17 18.3392 17.1918 17.6603 17.6027C16.9824 18.0129 16.4659 18.6059 16.0834 19.3171C15.337 20.7049 15.062 22.6145 15.062 24.8261V24.8701L15.0659 24.914C15.0831 25.1092 15.0847 25.4742 15.0789 26.0309C15.0775 26.1616 15.0758 26.302 15.074 26.4497C15.0685 26.9033 15.062 27.4314 15.062 28C15.062 28.5523 15.5097 29 16.062 29Z" fill="black"/>
</svg>

<svg
  xmlns="http://www.w3.org/2000/svg"
  width="24"
  height="24"
  viewBox="0 0 24 24"
  fill="none"
  stroke="currentColor"
  stroke-width="2"
  stroke-linecap="round"
  stroke-linejoin="round"
>
  <path
    fill-rule="evenodd"
    d="M28.5 8.5a4.5 4.5 0 1 1-9 0 4.5 4.5 0 0 1 9 0m-2 0a2.5 2.5 0 1 1-5 0 2.5 2.5 0 0 1 5 0"
    clip-rule="evenodd"
  />
  <path
    fill-rule="evenodd"
    d="M19.977 15c-1.16 0-2.313.262-3.352.892-1.037.627-1.783 1.51-2.303 2.478-.985 1.83-1.26 4.146-1.26 6.456v.088q0 .045.004.088l.008.088c.006.075.011.327.005.92l-.005.416v.002c-.005.452-.012.99-.012 1.572A3 3 0 0 0 17 30.85V41a3 3 0 0 0 5.988.272L23.83 32h.338l.843 9.272A3 3 0 0 0 31 41V30.83A3 3 0 0 0 35 28c0-.58-.007-1.118-.012-1.57v-.004l-.005-.416c-.006-.593-.002-.845.005-.92l.008-.088.004-.088v-.088c0-2.31-.276-4.625-1.26-6.456-.52-.967-1.266-1.851-2.303-2.478-1.04-.63-2.192-.892-3.353-.892zm-3.915 14c.429 0 .797-.27.938-.652V21.5h2V41a1 1 0 0 0 1.996.09l.926-10.18a1 1 0 0 1 .995-.91h2.166a1 1 0 0 1 .996.91l.925 10.18A1 1 0 0 0 29 41V21.5h2v6.523A1 1 0 0 0 33 28c0-.569-.007-1.096-.012-1.55v-.012l-.005-.407c-.006-.557-.004-.922.013-1.117L33 24.87v-.044c0-2.212-.275-4.121-1.022-5.509-.382-.711-.899-1.304-1.577-1.714-.678-.411-1.46-.603-2.317-.603h-8.107c-.856 0-1.638.192-2.317.603-.678.41-1.194 1.003-1.577 1.714-.746 1.388-1.021 3.297-1.021 5.51v.043l.004.044c.017.195.019.56.013 1.117l-.005.419c-.005.453-.012.981-.012 1.55a1 1 0 0 0 1 1"
    clip-rule="evenodd"
  />
</svg>
